img/icon-plus.svg

<svg width="22" height="22" viewBox="0 0 22 22" fill="none" xmlns="http://www.w3.org/2000/svg">
<path d="M18.7 9.89999V12.1H12.1V18.7H9.9V12.1H3.3V9.89999H9.9V3.29999H12.1V9.89999H18.7Z" fill="black" fill-opacity="0.3"/>
</svg>

<svg width="22" height="22" fill="none" xmlns="http://www.w3.org/2000/svg"><path d="M18.7 9.89999V12.1h-6.6v6.6H9.9v-6.6H3.3V9.89999h6.6v-6.6h2.2v6.6h6.6z" fill="#000" fill-opacity=".3"/></svg>
